Komodo/status/24/printer-symbolic.svg

<?xml version="1.0" encoding="UTF-8" standalone="no"?>
<!-- Created with Inkscape (http://www.inkscape.org/) -->
<svg id="svg3014" xmlns:rdf="http://www.w3.org/1999/02/22-rdf-syntax-ns#" xmlns="http://www.w3.org/2000/svg" height="24" width="24" version="1.1" xmlns:cc="http://creativecommons.org/ns#" xmlns:dc="http://purl.org/dc/elements/1.1/">
 <metadata id="metadata3019">
  <rdf:RDF>
   <cc:Work rdf:about="">
    <dc:format>image/svg+xml</dc:format>
    <dc:type rdf:resource="http://purl.org/dc/dcmitype/StillImage"/>
    <dc:title/>
   </cc:Work>
  </rdf:RDF>
 </metadata>
 <path id="rect3001-6" style="opacity:.3" d="m8 5c-0.554 0-1 1.446-1 2v2h-2.25c-0.4155 0-0.75 0.3345-0.75 0.75v5.5c0 0.416 0.3345 0.75 0.75 0.75h2.25v4c0 0.554 0.446 1 1 1h8c0.554 0 1-0.446 1-1v-4h2.25c0.416 0 0.75-0.334 0.75-0.75v-5.5c0-0.4155-0.334-0.75-0.75-0.75h-2.25v-2c0-0.554-0.446-2-1-2zm0.75 2h6.5c0.416 0 0.75 0.3345 0.75 0.75v2.25h-8v-2.25c0-0.4155 0.3345-0.75 0.75-0.75zm-0.75 7h8v5h-8z"/>
 <path id="rect3001" style="fill:#dfdbd2" d="m8 5c-0.554 0-1 0.446-1 1v2h-2c-0.4155 0-1 0.5845-1 1v5c0 0.4155 0.5845 1 1 1h2v4c0 0.554 0.446 1 1 1h8c0.554 0 1-0.446 1-1v-4h2c0.4155 0 1-0.5845 1-1v-5c0-0.4155-0.584-1-1-1h-2v-2c0-0.554-0.446-1-1-1zm0.75 1h6.5c0.416 0 0.75 0.3345 0.75 0.75v2.25h-8v-2.25c0-0.4155 0.3345-0.75 0.75-0.75zm4.25 4h1v1h-1zm2 0h1v1h-1zm2 0h1v1h-1zm-9 3h8v6h-8zm1 2v1h6v-1zm0 2v1h4v-1z"/>
</svg>

<?xml version="1.0" encoding="UTF-8" standalone="no"?>
<!-- Created with Inkscape (http://www.inkscape.org/) -->

<svg
   xmlns:dc="http://purl.org/dc/elements/1.1/"
   xmlns:cc="http://creativecommons.org/ns#"
   xmlns:rdf="http://www.w3.org/1999/02/22-rdf-syntax-ns#"
   xmlns:svg="http://www.w3.org/2000/svg"
   xmlns="http://www.w3.org/2000/svg"
   xmlns:sodipodi="http://sodipodi.sourceforge.net/DTD/sodipodi-0.dtd"
   xmlns:inkscape="http://www.inkscape.org/namespaces/inkscape"
   id="svg3014"
   height="24"
   width="24"
   version="1.1"
   inkscape:version="0.48.2 r9819"
   sodipodi:docname="printer-printing.svg">
  <defs
     id="defs11" />
  <sodipodi:namedview
     pagecolor="#ffffff"
     bordercolor="#666666"
     borderopacity="1"
     objecttolerance="10"
     gridtolerance="10"
     guidetolerance="10"
     inkscape:pageopacity="0"
     inkscape:pageshadow="2"
     inkscape:window-width="958"
     inkscape:window-height="1026"
     id="namedview9"
     showgrid="true"
     inkscape:zoom="18"
     inkscape:cx="11.131331"
     inkscape:cy="7.4882386"
     inkscape:window-x="0"
     inkscape:window-y="24"
     inkscape:window-maximized="0"
     inkscape:current-layer="svg3014">
    <inkscape:grid
       type="xygrid"
       id="grid2999"
       empspacing="5"
       visible="true"
       enabled="true"
       snapvisiblegridlinesonly="true" />
  </sodipodi:namedview>
  <metadata
     id="metadata3019">
    <rdf:RDF>
      <cc:Work
         rdf:about="">
        <dc:format>image/svg+xml</dc:format>
        <dc:type
           rdf:resource="http://purl.org/dc/dcmitype/StillImage" />
        <dc:title />
      </cc:Work>
    </rdf:RDF>
  </metadata>
  <path
     inkscape:connector-curvature="0"
     style="opacity:0.3;fill:#000000;fill-opacity:1;stroke:none"
     d="M 8,5 C 7.446,5 7,6.446 7,7 L 7,9 4.75,9 C 4.3345,9 4,9.3345 4,9.75 l 0,5.5 C 4,15.6655 4.3345,16 4.75,16 L 7,16 7,20 c 0,0.554 0.446,1 1,1 l 8,0 c 0.554,0 1,-0.446 1,-1 l 0,-4 2.25,0 C 19.6655,16 20,15.6655 20,15.25 l 0,-5.5 C 20,9.3345 19.6655,9 19.25,9 L 17,9 17,7 C 17,6.446 16.554,5 16,5 z m 0.75,2 6.5,0 C 15.6655,7 16,7.3345 16,7.75 L 16,10 8,10 8,7.75 C 8,7.3345 8.3345,7 8.75,7 z M 8,14 l 8,0 0,5 -8,0 z"
     id="rect3001-6"
     sodipodi:nodetypes="sscsssscsssscsssscssssssccssccccc" />
  <path
     style="fill:#dfdbd2;fill-opacity:1;stroke:none"
     d="M 8,5 C 7.446,5 7,5.446 7,6 L 7,8 5,8 C 4.5845,8 4,8.5845 4,9 l 0,5 c 0,0.4155 0.5845,1 1,1 l 2,0 0,4 c 0,0.554 0.446,1 1,1 l 8,0 c 0.554,0 1,-0.446 1,-1 l 0,-4 2,0 c 0.4155,0 1,-0.5845 1,-1 L 20,9 C 20,8.5845 19.4155,8 19,8 L 17,8 17,6 C 17,5.446 16.554,5 16,5 z m 0.75,1 6.5,0 C 15.6655,6 16,6.3345 16,6.75 L 16,9 8,9 8,6.75 C 8,6.3345 8.3345,6 8.75,6 z m 4.25,4 1,0 0,1 -1,0 z m 2,0 1,0 0,1 -1,0 z m 2,0 1,0 0,1 -1,0 z m -9,3 8,0 0,6 -8,0 z m 1,2 0,1 6,0 0,-1 z m 0,2 0,1 4,0 0,-1 z"
     id="rect3001"
     inkscape:connector-curvature="0"
     sodipodi:nodetypes="sscsssscsssscsssscssssssccsscccccccccccccccccccccccccccccc" />
</svg>
